icon/pk/fishing.svg

<svg viewBox="0 0 48 48" fill="none" xmlns="http://www.w3.org/2000/svg" height="1em" width="1em">
  <path d="M20.9871 34.5522L12 29L39 29C40.6569 29 42 30.3431 42 32C42 33.6569 40.6569 35 39 35L22.5639 35C22.0069 35 21.461 34.845 20.9871 34.5522Z" stroke="black" stroke-width="4" stroke-linecap="round" stroke-linejoin="round"/>
  <path d="M30 11C31.1046 11 32 10.1046 32 9C32 7.89543 31.1046 7 30 7C28.8954 7 28 7.89543 28 9C28 10.1046 28.8954 11 30 11Z" stroke="black" stroke-width="4" stroke-miterlimit="2"/>
  <path d="M34.0001 32C38 29 36.5001 22.4336 35.5001 20.5C34.5001 18.5664 32.5494 16 32.5494 16C32.5494 16 31.5001 16 30.5001 17C27.8215 19.6786 26.0001 23 23.5001 23C21.0001 23 17.5001 21 17.5001 21" stroke="black" stroke-width="4" stroke-miterlimit="2" stroke-linecap="round" stroke-linejoin="round"/>
  <path d="M20.0005 15C16.4037 10.5042 13.6152 8.43381 8.0005 8.06204C6.89835 7.98906 6.0001 8.89545 6.0001 10L6.0001 28" stroke="black" stroke-width="4" stroke-linecap="round" stroke-linejoin="round"/>
  <path d="M7 43C11 43 9.9375 41 13 41C16.0625 41 15 43 18.5 43C22 43 21 41 24.5 41C28 41 27.4375 43 30.5 43C33.5625 43 32 41 35.5 41C39 41 38.0625 43 42 43" stroke="black" stroke-width="4" stroke-linecap="round" stroke-linejoin="round"/>
</svg>

<svg width="48" height="48" fill="none" xmlns="http://www.w3.org/2000/svg"><path d="M20.987 34.552 12 29h27a3 3 0 1 1 0 6H22.564a3 3 0 0 1-1.577-.448Z" stroke="#000" stroke-width="4" stroke-linecap="round" stroke-linejoin="round"/><path d="M30 11a2 2 0 1 0 0-4 2 2 0 0 0 0 4Z" stroke="#000" stroke-width="4" stroke-miterlimit="2"/><path d="M34 32c4-3 2.5-9.566 1.5-11.5-1-1.934-2.95-4.5-2.95-4.5s-1.05 0-2.05 1c-2.678 2.679-4.5 6-7 6s-6-2-6-2" stroke="#000" stroke-width="4" stroke-miterlimit="2" stroke-linecap="round" stroke-linejoin="round"/><path d="M20 15c-3.596-4.496-6.385-6.566-12-6.938C6.899 7.989 6 8.895 6 10v18M7 43c4 0 2.938-2 6-2 3.063 0 2 2 5.5 2s2.5-2 6-2 2.938 2 6 2c3.063 0 1.5-2 5-2s2.563 2 6.5 2" stroke="#000" stroke-width="4" stroke-linecap="round" stroke-linejoin="round"/></svg>
